!!!!SEGMENT: pl-kk--kk-i-389--002-005_anonim--missa-no-2-sanctus.krn
!!!cenid: 17xx:2464
!!!COM: Anonim
!!!COM-rismID: pe30004985
!!!CDT:
!!!CNT:
!!!OPR: [Missa] No. 2.
!!!OTL: Sanctus
!!!OMV: 005
!!!PDT:
!!!AGN: Sacred; Mass
!!!YEC: Copyright 2022 Narodowy Instytut Fryderyka Chopina (https://polishscores.org)
!!!YEM: License CC-BY-4.0 (https://creativecommons.org/licenses/by/4.0)
!!!SMS-siglum: PL-Kk
!!!SMS-shelfmark: Kk.I.389
!!!SMS-variant:
!!!SMS-altvar:
!!!SMS-shelfwork: 002-005 M
!!!NIFC-rismSourceID: 1001146182
!!!NIFC-rismChildID: 1001146223
!!!NIFC-islandoraID: pl-kk:6976
!!!URL-pdf-islandora: https://repozytorium.nifc.pl/islandora/object/pl-kk%3A6976/datastream/PDF/view
!!!URL-scan: https://polish.musicsources.pl/pl/lokalizacje/galeria/rekopisy/5999/1 @EN{Scan on Polish Music Sources Website} @PL{Skany w portalu Dziedzictwo Muzyki Polskiej w otwartym dostępie}
!!!IIIF:
!!!ONB-nifc: UWAGA: S – skan 4-5, A – 23-24, T – 42-43 , B – 61-62. Części Mszy: Rorate, Kyrie, Gloria, Graduale, Sanctus, Benedictus, Agnus.
!!!AIN: 1 alto 1 bass 1 soprn 1 tenor
!!!key: F
**kern	**text	**kern	**text	**kern	**text	**kern	**text
*part4	*part4	*part3	*part3	*part2	*part2	*part1	*part1
*staff4	*staff4	*staff3	*staff3	*staff2	*staff2	*staff1	*staff1
*I"Basso.	*	*I"Tenore.	*	*I"Alto.	*	*I"Soprano.	*
*I'[B]	*	*I'[T]	*	*I'[A]	*	*I'[S]	*
*ICvox	*	*ICvox	*	*ICvox	*	*ICvox	*
*Ibass	*	*Itenor	*	*Ialto	*	*Isoprn	*
*clefF4	*	*clefC4	*	*clefC3	*	*clefC1	*
*k[b-]	*	*k[b-]	*	*k[b-]	*	*k[b-]	*
*F:	*	*F:	*	*F:	*	*F:	*
*M2/2	*	*M2/2	*	*M2/2	*	*M2/2	*
*met(C|)	*	*met(C|)	*	*met(C|)	*	*met(C|)	*
=1	=1	=1	=1	=1	=1	=1	=1
!!LO:TX:t=P:problem: all\right	!	!	!	!	!	!	!
4F\	San-	4A\	San-	4f\	San-	1cc	San-
4G\	.	4B-\	.	4e\	.	.	.
4A\	.	4A\	.	4f\	.	.	.
4B-\	.	4G\	.	8g\L	.	.	.
.	.	.	.	8f\J	.	.	.
=2	=2	=2	=2	=2	=2	=2	=2
*	*	*2\right	*	*2\right	*	*2\right	*
4c\	.	2c\	.	2f\	.	2a\	.
4G\	.	.	.	.	.	.	.
4E\	.	2c\	-ctus	2e\	-ctus	2g\	-ctus
4C\	-ctus	.	.	.	.	.	.
=3	=3	=3	=3	=3	=3	=3	=3
4F\	san-	1c	san-	1f	San-	1a	san-
4D\	.	.	.	.	.	.	.
4C/	.	.	.	.	.	.	.
4BBn/	.	.	.	.	.	.	.
=4	=4	=4	=4	=4	=4	=4	=4
2C/	-ctus	2c\	-ctus	2e\	-ctus	2g\	-ctus
2r	.	2r	.	2r	.	2r	.
=5	=5	=5	=5	=5	=5	=5	=5
2C/	San-	2c\	San-	2g\	san-	2ee\	San-
*2\right	*	*	*	*	*	*	*
2c\	-ctus	2c\	-ctus	2g\	-ctus	2ee\	-ctus
=6	=6	=6	=6	=6	=6	=6	=6
2B-\	Do-	2c\	Do-	2g\	Do-	2ee\	Do-
4B-\	-mi-	4c\	-mi-	4g\	-mi-	4ee\	-mi-
4B-\	-nus	4c\	-nus	4g\	-nus	4ee\	-nus
!LO:LB:g=original	!	!LO:LB:g=original	!	!	!	!	!
=7	=7	=7	=7	=7	=7	=7	=7
4A\	De-	2c\	De-	4f\	De-	2cc\	De-
4B-\	.	.	.	4g\	-us	.	.
!	!	!	!	!LO:LB:g=original	!	!	!
4A\	.	4c\	.	4f\	De-	2cc\	-us
4G\	-us	4B-\	-us	4e\	-us	.	.
!	!	!	!	!	!	!LO:LB:g=original	!
=8	=8	=8	=8	=8	=8	=8	=8
4F\	sa-	4A\	sa-	4f\	sa-	4cc\	Sa-
4G\	.	4B-\	.	4e\	.	4b-\	.
4A\	.	4c\	.	2f\	.	4a\	.
4B-\	.	4d\	.	.	.	4g\	.
=9	=9	=9	=9	=9	=9	=9	=9
4A\	.	4c\	.	2.f\	.	4f/	.
4B-\	.	4B-\	.	.	.	4g/	.
4c\	.	4A\	.	.	.	4cc\	.
4C/	-ba-	4G\	-ba-	4e\	-ba-	4cc\	-ba-
=10	=10	=10	=10	=10	=10	=10	=10
2F\	-ot,	2A\	-ot,	2f\	-ot,	2cc\	-ot,
2r	.	2r	.	2r	.	2r	.
=11	=11	=11	=11	=11	=11	=11	=11
4D\	ple-	2A\	ple-	2f\	ple-	2dd\	ple-
4A\	.	.	.	.	.	.	.
4F\	-ni	4A\	-ni	4f\	-ni	4dd\	-ni
4D\	sunt	4A\	sunt	4f\	sunt	4dd\	sunt
=12	=12	=12	=12	=12	=12	=12	=12
4AA/	ce-	2A\	ce-	2e\	ce-	2cc#X\	ce-
4A\	.	.	.	.	.	.	.
4E\	-li	4A\	-li	4g\	-li	4cc#\	-li
!LO:TX:t=P:problem:jeden takt wykreślony	!	!	!	!	!	!	!
4C#X/	et	4A\	et	4e\	et	4cc#\	et
!LO:LB:g=original	!	!	!	!	!	!	!
=13	=13	=13	=13	=13	=13	=13	=13
4D\	ter-	1A	ter-	1f	ter-	1dd	ter-
4E\	.	.	.	.	.	.	.
4F\	.	.	.	.	.	.	.
4G\	.	.	.	.	.	.	.
!	!	!LO:LB:g=original	!	!	!	!	!
=14	=14	=14	=14	=14	=14	=14	=14
2A\	-ra	2A\	-ra	2e\	-ra	2cc\	-ra
2r	.	2r	.	2r	.	2r	.
=15	=15	=15	=15	=15	=15	=15	=15
4.B-\	glo-	4.G/	glo-	4.e\	glo-	4.cc#X\	glo-
8B-\	-ri-	8G/	-ri-	8e\	-ri-	8cc#\	-ri-
2B-\	-a	2G/	-a	2e\	-a	2cc#\	-a
!	!	!	!	!LO:LB:g=original	!	!LO:LB:g=original	!
=16	=16	=16	=16	=16	=16	=16	=16
4A\	glo-	4d\	glo-	4f\	glo-	4dd\	glo-
4G\	.	4c#X\	.	4g\	.	4ee\	.
4F\	-ri-	4d\	-ri-	4a\	-ri-	4dd\	-ri-
4G\	-a	4c#\	-a	4g\	-a	4ee\	-a
=17	=17	=17	=17	=17	=17	=17	=17
2A\	tu-	1A	tu-	2f\	tu-	2dd\	tu-
2AA/	.	.	.	2e\	.	2cc#X\	.
=18	=18	=18	=18	=18	=18	=18	=18
2BB-/	-a	2B-X\	-a	2f\	-a	2dd\	-a
2r;	.	2r;	.	2r;	.	2r;	.
=19	=19	=19	=19	=19	=19	=19	=19
4.B-\	glo-	4.G/	glo-	4.e\	glo-	4.cc#X\	glo-
8B-\	-ri-	8G/	-ri-	8e\	-ri-	8cc#\	-ri-
2B-\	-a	2G/	-a	2e\	-a	2cc#\	-a
=20	=20	=20	=20	=20	=20	=20	=20
4A\	glo-	4d\	glo-	4f\	glo-	4dd\	glo-
4G\	.	4c#X\	.	4g\	.	4ee\	.
!LO:LB:g=original	!	!	!	!	!	!	!
4F\	-ri-	4d\	-ri-	4a\	-ri-	4dd\	-ri-
4G\	-a	4c#\	-a	4g\	-a	4ee\	-a
=21	=21	=21	=21	=21	=21	=21	=21
2A\	tu-	1A	tu-	2f\	tu-	2dd\	tu-
2AA/	.	.	.	2e\	.	2cc#X\	.
=22	=22	=22	=22	=22	=22	=22	=22
2D\	-a.	2A\	-a.	2f\	-a,	1dd	-a.
2r	.	2r	.	2r	.	.	.
!	!	!LO:LB:g=original	!	!LO:LB:g=original	!	!LO:LB:g=original	!
=23||	=23||	=23||	=23||	=23||	=23||	=23||	=23||
*	*	*clefC4	*	*clefC3	*	*clefC1	*
*	*	*k[b-]	*	*k[b-]	*	*k[b-]	*
*M3/2	*	*M3/2	*	*M3/2	*	*M3/2	*
2F\	O-	2c\	.	2f\	O-	2a\	O-
2A\	-san-	2c\	.	2c/	-san-	2a\	-san-
2c\	-na	2c\	.	2B-/	-na	2g\	-na
=24	=24	=24	=24	=24	=24	=24	=24
1F	in	1c	.	4A/	in	4f\	in
.	.	.	.	4c\	.	4g\	.
.	.	.	.	4f\	.	4a\	.
.	.	.	.	4a\	.	4cc\	.
2F\	ex-	2c\	.	4g\	.	4b-\	.
.	.	.	.	4f\	ex-	4a\	ex-
=25	=25	=25	=25	=25	=25	=25	=25
2c\	-cel-	2c\	.	2f\	-cel-	2a\	-cel-
2C/	-sis	2c\	.	2e\	-sis	2g\	-sis
2C/	o-	2c\	.	2g\	O-	2ee\	O-
=26	=26	=26	=26	=26	=26	=26	=26
2C/	-san-	2c\	.	4g\	-san-	4ee\	-san-
.	.	.	.	4f\	-na	4dd\	-na
2E/	-na	2c\	.	4e\	in	4cc\	in
.	.	.	.	4d\	.	4b-\	.
4C/	in	4c\	.	4c/	ex-	4a\	.
4C/	ex-	4c\	.	4B-/	.	4g\	ex-
!LO:LB:g=original	!	!	!	!	!	!LO:PB:g=original	!
=27	=27	=27	=27	=27	=27	=27	=27
2F\	-cel-	2c\	.	2B-/	-cel-	2g/	-cel-
2F\	-sis	2c\	.	2A/	-sis	2f/	-sis
2F\	O-	2F/	.	2c/	o-	2a\	O-
!	!	!	!	!LO:PB:g=original	!	!	!
=28	=28	=28	=28	=28	=28	=28	=28
2F\	-san-	1.F	.	4c\	-san-	4a\	-san-
.	.	.	.	4d\	.	4b-\	.
2A\	.	.	.	4e-X\	.	4cc\	.
.	.	.	.	4d\	.	4b-\	.
2F\	.	.	.	2c\	.	2a\	.
!	!	!LO:LB:g=original	!	!	!	!	!
=29	=29	=29	=29	=29	=29	=29	=29
2B-\	-na,	2F/	.	2d\	-na,	2b-\	-na,
2G\	in	2G/	.	2d\	in	2bn\	in
2G\	ex-	2G/	.	2d\	ex-	2b\	ex-
=30	=30	=30	=30	=30	=30	=30	=30
2G\	-cel-	1.G	.	4d\	-cel-	4bn\	-cel-
.	.	.	.	4e\	.	4cc\	.
2Bn\	.	.	.	4f\	.	4dd\	.
.	.	.	.	4e\	.	4cc\	.
2G\	.	.	.	4f\	.	4dd\	.
.	.	.	.	4d\	.	4b\	.
=31	=31	=31	=31	=31	=31	=31	=31
2c\	-sis,	2G/	.	2e\	-sis	2cc\	-sis,
2F\	o-	2c\	.	2f\	O-	2a\	O-
2E\	.	2B-\	.	2g\	.	2b-\	.
=32	=32	=32	=32	=32	=32	=32	=32
2.F\	-san-	2.A\	.	2.a\	-san-	2.cc\	-san-
4G\	-na	4B-\	.	4g\	.	4b-\	.
2A\	in	2c\	.	2f\	-na	2a\	-na
!	!	!	!	!	!	!LO:LB:g=original	!
=33	=33	=33	=33	=33	=33	=33	=33
2B-\	ex-	1d	.	2g\	in	2b-\	in
2c\	-cel-	.	.	2f\	ex-	2a\	ex-
2C/	.	2c\	.	2e\	-cel-	2g\	-cel-
!LO:LB:g=original	!	!	!	!LO:LB:g=original	!	!	!
=34	=34	=34	=34	=34	=34	=34	=34
2F\	-sis,	2c\	.	2f\	-sis	2a\	-sis,
2r	.	2r	.	2r	.	2r	.
2F\	o-	2F/	.	2c\	O-	2a\	O-
=35	=35	=35	=35	=35	=35	=35	=35
2F\	-san-	1.F	.	4c\	-san-	4a\	-san-
.	.	.	.	4d\	.	4b-\	.
2A\	.	.	.	4e-X\	.	4cc\	.
.	.	.	.	4d\	.	4b-\	.
2F\	.	.	.	2c\	.	2a\	.
=36	=36	=36	=36	=36	=36	=36	=36
2B-\	-na,	2F/	.	2d\	-na	2b-\	-na,
2G\	in	2G/	.	2d\	in	2bn\	in
2G\	ex-	2G/	.	2d\	ex-	2b\	ex-
!	!	!LO:PB:g=original	!	!	!	!	!
=37	=37	=37	=37	=37	=37	=37	=37
2G\	-cel-	1.G	.	4d\	-cel-	4bn\	-cel-
.	.	.	.	4e\	.	4cc\	.
2Bn\	.	.	.	4f\	.	4dd\	.
.	.	.	.	4e\	.	4cc\	.
2G\	.	.	.	4f\	.	4dd\	.
.	.	.	.	4d\	.	4b\	.
=38	=38	=38	=38	=38	=38	=38	=38
2c\	-sis	2G/	.	2e\	-sis	2cc\	-sis
2F\	O-	2c\	.	2f\	in	2a\	o-
2E\	.	2B-\	.	2g\	ex-	2b-X\	.
!	!	!	!	!	!	!LO:LB:g=original	!
=39	=39	=39	=39	=39	=39	=39	=39
2.F\	-san-	2.A\	.	2.a\	-cel-	2.cc\	-san-
4G\	-na	4B-\	.	4g\	.	4b-\	-na
2A\	in	2c\	.	2f\	-sis	2a\	in
=40	=40	=40	=40	=40	=40	=40	=40
2B-\	ex-	2d\	.	2g\	ex-	2b-\	ex-
2c\	-cel-	1c	.	2f\	-cel-	2a\	-cel-
2C/	.	.	.	2e\	.	2g\	.
=41	=41	=41	=41	=41	=41	=41	=41
1.F	-sis.	1c	.	1f	-sis.	1.a	-sis,
.	.	2r	.	2ryy	.	.	.
==	==	==	==	==	==	==	==
*-	*-	*-	*-	*-	*-	*-	*-
!!!system-decoration: [(s1,s2,s3,s4)]
!!!ENC: Andrzej Gręziak
!!!END: 2023-11-05
!!!EED: Jan Barakat
!!!EEV: 2023-11-27
